public/masthead/arrow.svg

<svg width="24" height="40" viewBox="0 0 24 40" fill="none" xmlns="http://www.w3.org/2000/svg">
<path d="M0.876374 27.2863L11.2482 39.2394C11.342 39.3476 11.4579 39.4343 11.5881 39.4938C11.7183 39.5532 11.8598 39.584 12.0029 39.584C12.1461 39.584 12.2875 39.5532 12.4178 39.4938C12.548 39.4343 12.6639 39.3476 12.7576 39.2394L23.1264 27.2863C23.1577 27.2503 23.178 27.206 23.1849 27.1587C23.1918 27.1115 23.1849 27.0633 23.1652 27.0198C23.1454 26.9763 23.1136 26.9394 23.0735 26.9136C23.0333 26.8877 22.9866 26.8739 22.9389 26.8738L20.4076 26.8738C20.2639 26.8738 20.1264 26.9363 20.0295 27.0457L13.1889 34.93L13.1889 0.999998C13.1889 0.862498 13.0764 0.749998 12.9389 0.749998L11.0639 0.749998C10.9264 0.749998 10.8139 0.862498 10.8139 0.999998L10.8139 34.93L3.97325 27.0457C3.8795 26.9363 3.742 26.8738 3.59512 26.8738L1.06387 26.8738C0.851374 26.8738 0.735749 27.1238 0.876374 27.2863Z" fill="white"/>
</svg>

<svg xmlns="http://www.w3.org/2000/svg" width="24" height="40" fill="none"><path fill="#fff" d="M.876 27.286 11.248 39.24a1 1 0 0 0 1.51 0l10.368-11.953a.25.25 0 0 0-.187-.412h-2.531a.506.506 0 0 0-.379.172l-6.84 7.884V1a.25.25 0 0 0-.25-.25h-1.875a.25.25 0 0 0-.25.25v33.93l-6.84-7.884a.496.496 0 0 0-.379-.172H1.064a.249.249 0 0 0-.188.412Z"/></svg>
